X: 4
T: The Mug of Brown Ale
M: 6/8
L: 1/8
R: jig
K: G Major
|: G |\
EAA ABd | edB c2 A | BGG DGG | Bdc BAG |
EAA ABd | ede a2 e | edc Bcd | ecA A2 :|
|: e/f/ |\
gef g2 a | gef g2 d |  BGG DGG | B/c/dc BAG |
[1 gef g2 a | gef g2 d | edc Bcd | ecA A2 :|
[2 EAA ABd | ede a2 e | edc Bcd | ecA A2 |]
